X: 28311
T: Muckin' O' Geordie's Byre, The
R: jig
M: 6/8
K: Dmajor
|:ABA AFA|d2e f2f|g2e f2d|e2d Bcd|
ABA AFA|d2e f2g|afd efe|1 d3- d3:|2 d3 def||
|:g3 gag|f2f fed|e2d efg|fed Bcd|
ABA AFA|d2 e f2 g|afd efe|1 d3 def:|2 d3- d3||

